X:46
T:3 Str\"omningar
S:Andrea Hoag/Felicity Patterson
R:Polska
O:Sweden
N:3 Herrings (??and a piece of bread??)
M:3/4
K:D
A| \
(3d2^F2G2 E>G | (3^F2D2^F2 A2- |\
A2 d^c/d/ e>d | B^c dB ^c>A | \
(3d2^F2G2 E>G | (3^F2D2^F2 A2- | \
A2 d^c/d/ e>d | B<^G A4 ::\
A2 d^c de | (3d2B2A2 B2- | \
B2 GF/G/ A>G | E<F GE F>D | \
A2 d^c de | (3d2B2A2 B2- |\
B2 GF/G/ A>G | E<C D3 :|


